X:1
T:Title
%%score 1 2
L:1/8
M:3/2
K:C
V:1 treble nm="Part_1"
V:2 treble-8 nm="Part_2"
V:1
 c4 d2 c2 A4 | z2 G2 A2 c2 B2 G2 | A4 z2 G2 F2 D2 | E4 z2 F2 G4 | A4 z2 B2 c4 | d4 c2 A4 z2 | %6
 G2 A2 c2 !fermata!B4 z2 | c4 c2 c2 A4 | F3 G A3 B c3 B | A2 G3 F F4 E2 | F4 z2 A2 B2 c2- | %11
 c2 A4 GF E4 | G2 F2 ED E4 z2 | F2 G4 A4 z2 | c2 B2 G2 A4 z2 | F2 G2 E2 D4 F2 | A4 G2 F2 E4 | %17
 D2 G4 F2 G4 | z2 F2 E2 C2 D4 | z2 C2 F4 G2 E2 | D4 z2 C2 E2 F2 | G4 A4 z2 G2 | A2 c2 !fermata!B8 | %23
 z2 c3 B A2 G2 A2 | GF E4 G2 F2 ED | E2 C2 F3 EFG A2- | AGAB c3 BAG A2- | AGFE F2 G4 E2 | %28
 D4 C2 F4 E2 | F12 | F6 D2 E4 | z2 F2 G2 FG A2 F2 | E4 F4 z2 A2 | G2 A2 B2 c3 BAG | A2 G4 ^F2 G4 | %35
 z2 B2 c2 d4 e2- | e2 d2 c3 BBA c2- | c2 z2 G2 A2 G2 A2 | B2 c4 B2 A4 | G4 z2 F2 E2 C2 | %40
 D4 z2 C2 D2 E2 | F4 G2 A3 F G2 | F3 E ED F4 z2 | _B4 A4 G4 | F4 z2 G2 A3 F | G2 F2 D2 E2 F4 | %46
 z2 F4 E2 C2 D2- | D2 C4 z2 A4 | F2 G2 _B2 A4 z2 | G2 c4 d4 c2- | c2 _B2 A4 G2 F2- | %51
 F2 z2 _B2 A3 F G2 | A3 GFE D2 G4 | F2 G4 z2 F2 E2 | C2 D4 z2 C2 F2- | F2 G2 E2 D4 z2 | %56
 C2 E2 F2 G4 A2- | A2 z2 G2 A2 c2 !fermata!B2- | B2 z2 c3 B A2 G2 | A2 GF E4 G2 F2 | %60
 ED E2 C2 F3 EFG | A3 GAB c3 BAG | A3 GFE F2 G4 |[M:7/4] E2 D4 C2 F4 E2 |[M:3/2] F12 |] %65
V:2
 z4 z4 c4 | d2 c2 A4 G4 | z2 c2 B2 G2 A4 | z2 G2 F2 D2 E4 | z2 F2 G4 A4 | z2 B2 c4 d4 | %6
 c2 A2 !fermata!G8 | z4 c4 c2 c2 | A4 F3 G A3 B | c2 B2 A2 F2 G4 | F8 z4 | A6 B2 c4 | %12
 _B2 A2 F2 G4 F2 | D2 E4 z2 F2 A2- | A2 G4 z2 c2 d2- | d2 c4 B2 G2 A2- | A2 F3 GAB c4 | %17
 d2 B2 A4 G4 | D4 z2 C2 F4 | G2 E2 D4 z2 E2 | F2 G2 A4 G2 F2 | E4 z2 D2 E4 | F4 !fermata!G8 | %23
 z4 z2 c3 B c2- | cd c2 BA G2 A2 B2 | c4 A3 GFE F2- | FEFG A3 GAB c2- | cBAG A2 B2 G2 c2- | %28
 c2 B2 c2 A2 G4 | F12 | F6 F2 G4 | F2 D2 E4 z2 F2 | G2 FG A4 F4 | E2 F2 G2 A3 GAB | c2 G2 A4 G4- | %35
 G4 z2 B4 c2- | c2 z2 e2 d4 c2- | c6 F2 E2 F2 | G2 A4 z2 F4 | E2 C2 D4 C4 | z2 B2 c2 A2 G4 | %41
 F3 D E2 F4 C2 | F2 G4 F4 z2 | G4 F4 _B4 | A4 G4 F4 | E2 F2 G4 F4 | z2 A4 c4 B2- | B2 c4 F4 z2 | %48
 A2 _B4 c4 G2 | _B2 A4 z2 G2 c2- | c2 d4 c4 z2 | A2 G4 F4 z2 | A3 B c2 d2 c2 A2- | A2 G4 D6 | %54
 C2 F4 G2 E2 D2- | D2 z2 E2 F2 G2 A2- | A2 G2 F2 E4 z2 | D2 E4 F4 !fermata!G2- | G2 z2 z4 c3 B | %59
 c3 d c2 BA G2 A2 | B2 c4 A3 GFE | F3 EFG A3 GAB | c3 BAG A2 B2 G2 |[M:7/4] c4 B2 c2 A2 G4 | %64
[M:3/2] F12 |] %65

